lib/flags/tr-turkey.svg

<svg xmlns="http://www.w3.org/2000/svg" fill="none" aria-hidden="true" viewBox="0 0 42 30"><g id="Country=TR - Turkey, Size=sm (36x24)" filter="url(#filter0_dd_91_24439)"><g clip-path="url(#clip0_91_24439)"><g id="flag"><mask id="mask0_91_24439" width="36" height="24" x="3" y="2" maskUnits="userSpaceOnUse" style="mask-type:alpha"><rect id="mask" width="36" height="24" x="3" y="2" fill="white"/></mask><g mask="url(#mask0_91_24439)"><g id="contents"><path id="background" fill="#E31D1C" fill-rule="evenodd" d="M3 2V26H39V2H3Z" clip-rule="evenodd"/><mask id="mask1_91_24439" width="36" height="24" x="3" y="2" maskUnits="userSpaceOnUse" style="mask-type:alpha"><path id="background_2" fill="white" fill-rule="evenodd" d="M3 2V26H39V2H3Z" clip-rule="evenodd"/></mask><g mask="url(#mask1_91_24439)"><path id="Combined shape 1695" fill="#F7FCFF" fill-rule="evenodd" d="M21.0285 18.1136C18.6195 17.5861 16.7328 15.7938 16.7547 13.1665C16.7752 10.707 18.4503 8.62819 21.0985 8.06542C23.7467 7.50266 26.0782 8.69727 26.0782 8.69727C25.3463 7.16146 22.8036 6.08251 20.719 6.08561C16.8386 6.09139 12.7021 8.88863 12.6665 13.1665C12.6295 17.6014 17.096 20.1272 21.0243 20.1213C24.1735 20.1166 25.6672 18.2015 25.9766 17.3868C25.9766 17.3868 23.4375 18.6412 21.0285 18.1136ZM26.5161 12.3267L24.1159 13.1103L26.824 13.9595L26.7779 16.4969L28.5623 14.5933L31.5099 14.7837L29.1741 12.999L30.7075 11.0952L28.2106 11.8421L26.426 10.0785L26.5161 12.3267Z" clip-rule="evenodd"/></g></g></g></g></g></g><defs><filter id="filter0_dd_91_24439" width="42" height="30" x="0" y="0" color-interpolation-filters="sRGB" filterUnits="userSpaceOnUse"><feFlood flood-opacity="0" result="BackgroundImageFix"/><feColorMatrix in="SourceAlpha" result="hardAlpha" values="0 0 0 0 0 0 0 0 0 0 0 0 0 0 0 0 0 0 127 0"/><feOffset dy="1"/><feGaussianBlur stdDeviation="1"/><feColorMatrix values="0 0 0 0 0.0627451 0 0 0 0 0.0941176 0 0 0 0 0.156863 0 0 0 0.06 0"/><feBlend in2="BackgroundImageFix" result="effect1_dropShadow_91_24439"/><feColorMatrix in="SourceAlpha" result="hardAlpha" values="0 0 0 0 0 0 0 0 0 0 0 0 0 0 0 0 0 0 127 0"/><feOffset dy="1"/><feGaussianBlur stdDeviation="1.5"/><feColorMatrix values="0 0 0 0 0.0627451 0 0 0 0 0.0941176 0 0 0 0 0.156863 0 0 0 0.1 0"/><feBlend in2="effect1_dropShadow_91_24439" result="effect2_dropShadow_91_24439"/><feBlend in="SourceGraphic" in2="effect2_dropShadow_91_24439" result="shape"/></filter><clipPath id="clip0_91_24439"><rect width="36" height="24" x="3" y="2" fill="white" rx="2"/></clipPath></defs></svg>

<svg xmlns="http://www.w3.org/2000/svg" fill="none" aria-hidden="true" viewBox="0 0 42 30"><g filter="url(#a)"><g clip-path="url(#b)"><mask id="c" width="36" height="24" x="3" y="2" maskUnits="userSpaceOnUse" style="mask-type:alpha"><path fill="#fff" d="M3 2h36v24H3z"/></mask><g mask="url(#c)"><path fill="#E31D1C" fill-rule="evenodd" d="M3 2v24h36V2H3Z" clip-rule="evenodd"/><mask id="d" width="36" height="24" x="3" y="2" maskUnits="userSpaceOnUse" style="mask-type:alpha"><path fill="#fff" fill-rule="evenodd" d="M3 2v24h36V2H3Z" clip-rule="evenodd"/></mask><g mask="url(#d)"><path fill="#F7FCFF" fill-rule="evenodd" d="M21.029 18.114c-2.41-.528-4.296-2.32-4.274-4.948.02-2.459 1.695-4.538 4.344-5.1 2.648-.563 4.98.631 4.98.631-.733-1.536-3.275-2.614-5.36-2.611-3.88.005-8.017 2.803-8.053 7.08-.037 4.435 4.43 6.961 8.358 6.955 3.15-.004 4.643-1.92 4.953-2.734 0 0-2.54 1.254-4.948.727Zm5.487-5.787-2.4.783 2.708.85-.046 2.537 1.784-1.904 2.948.19L29.174 13l1.534-1.904-2.497.747-1.785-1.764.09 2.249Z" clip-rule="evenodd"/></g></g></g></g><defs><clipPath id="b"><rect width="36" height="24" x="3" y="2" fill="#fff" rx="2"/></clipPath><filter id="a" width="42" height="30" x="0" y="0" color-interpolation-filters="sRGB" filterUnits="userSpaceOnUse"><feFlood flood-opacity="0" result="BackgroundImageFix"/><feColorMatrix in="SourceAlpha" result="hardAlpha" values="0 0 0 0 0 0 0 0 0 0 0 0 0 0 0 0 0 0 127 0"/><feOffset dy="1"/><feGaussianBlur stdDeviation="1"/><feColorMatrix values="0 0 0 0 0.0627451 0 0 0 0 0.0941176 0 0 0 0 0.156863 0 0 0 0.06 0"/><feBlend in2="BackgroundImageFix" result="effect1_dropShadow_91_24439"/><feColorMatrix in="SourceAlpha" result="hardAlpha" values="0 0 0 0 0 0 0 0 0 0 0 0 0 0 0 0 0 0 127 0"/><feOffset dy="1"/><feGaussianBlur stdDeviation="1.5"/><feColorMatrix values="0 0 0 0 0.0627451 0 0 0 0 0.0941176 0 0 0 0 0.156863 0 0 0 0.1 0"/><feBlend in2="effect1_dropShadow_91_24439" result="effect2_dropShadow_91_24439"/><feBlend in="SourceGraphic" in2="effect2_dropShadow_91_24439" result="shape"/></filter></defs></svg>
